public/img/svgs/shapes/footer-shape.svg

<svg width="370" height="80" viewBox="0 0 370 80" fill="none" xmlns="http://www.w3.org/2000/svg">
<g clip-path="url(#clip0)">
<path d="M342.5 9.06667C336.525 13.0895 332.342 16.64 321.841 16.64C311.34 16.64 306.632 13.5314 300.477 9.50856C299.209 8.59428 297.942 7.86286 296.494 6.94858C290.7 3.29143 283.458 0 271.509 0C259.74 0 252.498 3.29143 246.524 6.94858C245.075 7.86286 243.808 8.59428 242.541 9.50856C236.566 13.5314 231.678 16.64 221.358 16.64C210.857 16.64 206.15 13.5314 200.175 9.50856C198.908 8.59428 197.64 7.86286 196.192 6.94858C190.398 3.29143 183.156 0 171.207 0C159.439 0 152.197 3.29143 146.222 6.94858C144.774 7.86286 143.506 8.59428 142.239 9.50856C136.264 13.5314 131.376 16.64 121.056 16.64C110.555 16.64 105.848 13.5314 99.8732 9.50856C98.6059 8.59428 97.3386 7.86286 95.8902 6.94858C90.0966 3.29143 82.8545 0 70.9052 0C59.137 0 51.895 3.29143 45.9203 6.94858C44.4719 7.86286 43.2046 8.59428 41.9372 9.50856C35.9626 13.5314 31.0742 16.64 20.7544 16.64C10.2535 16.64 5.54614 13.5314 -0.428497 9.50856C-1.69586 8.59428 -2.96323 7.86286 -4.41162 6.94858C-10.2052 3.29143 -17.4472 0 -29.3965 0C-41.1648 0 -48.4068 3.29143 -54.3814 6.94858C-55.8298 7.86286 -57.0972 8.59428 -58.3645 9.50856C-64.3392 13.5314 -69.2275 16.64 -79.5474 16.64C-90.0483 16.64 -94.7556 13.5314 -100.73 9.50856C-101.998 8.59428 -103.265 7.86286 -104.713 6.94858C-110.507 3.29143 -117.749 0 -129.698 0C-141.466 0 -148.709 3.29143 -154.683 6.94858C-156.132 7.86286 -157.399 8.59428 -158.666 9.50856C-164.641 13.5314 -169.529 16.64 -179.849 16.64C-190.35 16.64 -195.057 13.5314 -201.032 9.50856C-202.299 8.59428 -203.567 7.86286 -205.015 6.94858C-210.809 3.29143 -218.051 0 -230 0V13.8972C-219.499 13.8972 -214.792 17.0057 -208.817 21.0286C-202.118 25.4171 -194.514 30.5371 -180.03 30.5371C-165.546 30.5371 -157.942 25.6 -151.243 21.0286C-145.269 17.0057 -140.38 13.8972 -130.06 13.8972C-119.559 13.8972 -114.852 17.0057 -108.877 21.0286C-102.179 25.4171 -94.5745 30.5371 -80.0905 30.5371C-65.6065 30.5371 -58.0024 25.6 -51.3036 21.0286C-45.3289 17.0057 -40.4406 13.8972 -30.1207 13.8972C-19.6198 13.8972 -14.9125 17.0057 -8.93787 21.0286C-2.23901 25.4171 5.36513 30.5371 19.8491 30.5371C34.3331 30.5371 41.9372 25.6 48.6361 21.0286C54.6107 17.0057 59.4991 13.8972 69.8189 13.8972C80.3198 13.8972 85.0271 17.0057 91.0018 21.0286C97.7006 25.4171 105.305 30.5371 119.789 30.5371C134.273 30.5371 141.877 25.6 148.576 21.0286C154.55 17.0057 159.439 13.8972 169.759 13.8972C180.259 13.8972 184.967 17.0057 190.941 21.0286C197.64 25.4171 205.244 30.5371 219.728 30.5371C234.212 30.5371 241.816 25.6 248.515 21.0286C254.49 17.0057 259.378 13.8972 269.698 13.8972C280.199 13.8972 284.906 17.0057 291.062 21.0286C297.761 25.4171 305.365 30.5371 319.849 30.5371C334.333 30.5371 341.937 25.6 348.636 21.0286C354.611 17.0057 359.499 13.8972 370 13.8972V0C365 0 360 0 355 2.26666C350 4.53333 343.767 8.33524 342.5 9.06667Z" fill="#C3C6DE"/>
<path d="M342.5 54.4002C336.525 58.423 332.342 61.9735 321.841 61.9735C311.34 61.9735 306.632 58.8649 300.477 54.8421C299.209 53.9278 297.942 53.1964 296.494 52.2821C290.7 48.6249 283.458 45.3335 271.509 45.3335C259.74 45.3335 252.498 48.6249 246.524 52.2821C245.075 53.1964 243.808 53.9278 242.541 54.8421C236.566 58.8649 231.678 61.9735 221.358 61.9735C210.857 61.9735 206.15 58.8649 200.175 54.8421C198.908 53.9278 197.64 53.1964 196.192 52.2821C190.398 48.6249 183.156 45.3335 171.207 45.3335C159.439 45.3335 152.197 48.6249 146.222 52.2821C144.774 53.1964 143.506 53.9278 142.239 54.8421C136.264 58.8649 131.376 61.9735 121.056 61.9735C110.555 61.9735 105.848 58.8649 99.8732 54.8421C98.6059 53.9278 97.3386 53.1964 95.8902 52.2821C90.0966 48.6249 82.8545 45.3335 70.9052 45.3335C59.137 45.3335 51.895 48.6249 45.9203 52.2821C44.4719 53.1964 43.2046 53.9278 41.9372 54.8421C35.9626 58.8649 31.0742 61.9735 20.7544 61.9735C10.2535 61.9735 5.54614 58.8649 -0.428497 54.8421C-1.69586 53.9278 -2.96323 53.1964 -4.41162 52.2821C-10.2052 48.6249 -17.4472 45.3335 -29.3965 45.3335C-41.1648 45.3335 -48.4068 48.6249 -54.3814 52.2821C-55.8298 53.1964 -57.0972 53.9278 -58.3645 54.8421C-64.3392 58.8649 -69.2275 61.9735 -79.5474 61.9735C-90.0483 61.9735 -94.7556 58.8649 -100.73 54.8421C-101.998 53.9278 -103.265 53.1964 -104.713 52.2821C-110.507 48.6249 -117.749 45.3335 -129.698 45.3335C-141.466 45.3335 -148.709 48.6249 -154.683 52.2821C-156.132 53.1964 -157.399 53.9278 -158.666 54.8421C-164.641 58.8649 -169.529 61.9735 -179.849 61.9735C-190.35 61.9735 -195.057 58.8649 -201.032 54.8421C-202.299 53.9278 -203.567 53.1964 -205.015 52.2821C-210.809 48.6249 -218.051 45.3335 -230 45.3335V59.2306C-219.499 59.2306 -214.792 62.3392 -208.817 66.3621C-202.118 70.7506 -194.514 75.8706 -180.03 75.8706C-165.546 75.8706 -157.942 70.9335 -151.243 66.3621C-145.269 62.3392 -140.38 59.2306 -130.06 59.2306C-119.559 59.2306 -114.852 62.3392 -108.877 66.3621C-102.179 70.7506 -94.5745 75.8706 -80.0905 75.8706C-65.6065 75.8706 -58.0024 70.9335 -51.3036 66.3621C-45.3289 62.3392 -40.4406 59.2306 -30.1207 59.2306C-19.6198 59.2306 -14.9125 62.3392 -8.93787 66.3621C-2.23901 70.7506 5.36513 75.8706 19.8491 75.8706C34.3331 75.8706 41.9372 70.9335 48.6361 66.3621C54.6107 62.3392 59.4991 59.2306 69.8189 59.2306C80.3198 59.2306 85.0271 62.3392 91.0018 66.3621C97.7006 70.7506 105.305 75.8706 119.789 75.8706C134.273 75.8706 141.877 70.9335 148.576 66.3621C154.55 62.3392 159.439 59.2306 169.759 59.2306C180.259 59.2306 184.967 62.3392 190.941 66.3621C197.64 70.7506 205.244 75.8706 219.728 75.8706C234.212 75.8706 241.816 70.9335 248.515 66.3621C254.49 62.3392 259.378 59.2306 269.698 59.2306C280.199 59.2306 284.906 62.3392 291.062 66.3621C297.761 70.7506 305.365 75.8706 319.849 75.8706C334.333 75.8706 341.937 70.9335 348.636 66.3621C354.611 62.3392 359.499 59.2306 370 59.2306V45.3335C365 45.3335 360 45.3335 355 47.6002C350 49.8668 343.767 53.6687 342.5 54.4002Z" fill="#C3C6DE"/>
</g>
<defs>
<clipPath id="clip0">
<rect width="370" height="80" fill="white"/>
</clipPath>
</defs>
</svg>

<svg width="370" height="80" fill="none" xmlns="http://www.w3.org/2000/svg"><g clip-path="url(#clip0)" fill="#C3C6DE"><path d="M342.5 9.067c-5.975 4.022-10.158 7.573-20.659 7.573s-15.209-3.109-21.364-7.131c-1.268-.915-2.535-1.646-3.983-2.56C290.7 3.29 283.458 0 271.509 0c-11.769 0-19.011 3.291-24.985 6.949-1.449.914-2.716 1.645-3.983 2.56-5.975 4.022-10.863 7.131-21.183 7.131-10.501 0-15.208-3.109-21.183-7.131-1.267-.915-2.535-1.646-3.983-2.56C190.398 3.29 183.156 0 171.207 0c-11.768 0-19.01 3.291-24.985 6.949-1.448.914-2.716 1.645-3.983 2.56-5.975 4.022-10.863 7.131-21.183 7.131-10.501 0-15.208-3.109-21.183-7.131-1.267-.915-2.534-1.646-3.983-2.56C90.097 3.29 82.855 0 70.905 0 59.137 0 51.895 3.291 45.92 6.949c-1.448.914-2.715 1.645-3.983 2.56-5.974 4.022-10.863 7.131-21.183 7.131-10.5 0-15.208-3.109-21.182-7.131-1.268-.915-2.535-1.646-3.984-2.56C-10.205 3.29-17.447 0-29.397 0c-11.768 0-19.01 3.291-24.984 6.949-1.449.914-2.716 1.645-3.983 2.56-5.975 4.022-10.864 7.131-21.183 7.131-10.501 0-15.209-3.109-21.183-7.131-1.268-.915-2.535-1.646-3.983-2.56C-110.507 3.29-117.749 0-129.698 0c-11.768 0-19.011 3.291-24.985 6.949-1.449.914-2.716 1.645-3.983 2.56-5.975 4.022-10.863 7.131-21.183 7.131-10.501 0-15.208-3.109-21.183-7.131-1.267-.915-2.535-1.646-3.983-2.56C-210.809 3.29-218.051 0-230 0v13.897c10.501 0 15.208 3.109 21.183 7.132 6.699 4.388 14.303 9.508 28.787 9.508 14.484 0 22.088-4.937 28.787-9.508 5.974-4.023 10.863-7.132 21.183-7.132 10.501 0 15.208 3.109 21.183 7.132 6.698 4.388 14.302 9.508 28.786 9.508 14.484 0 22.089-4.937 28.787-9.508 5.975-4.023 10.863-7.132 21.183-7.132 10.501 0 15.208 3.109 21.183 7.132 6.699 4.388 14.303 9.508 28.787 9.508 14.484 0 22.088-4.937 28.787-9.508 5.975-4.023 10.863-7.132 21.183-7.132 10.5 0 15.208 3.109 21.183 7.132 6.699 4.388 14.303 9.508 28.787 9.508 14.484 0 22.088-4.937 28.787-9.508 5.974-4.023 10.863-7.132 21.183-7.132 10.5 0 15.208 3.109 21.182 7.132 6.699 4.388 14.303 9.508 28.787 9.508 14.484 0 22.088-4.937 28.787-9.508 5.975-4.023 10.863-7.132 21.183-7.132 10.501 0 15.208 3.109 21.364 7.132 6.699 4.388 14.303 9.508 28.787 9.508 14.484 0 22.088-4.937 28.787-9.508 5.975-4.023 10.863-7.132 21.364-7.132V0c-5 0-10 0-15 2.267-5 2.266-11.233 6.068-12.5 6.8zm0 45.333c-5.975 4.023-10.158 7.574-20.659 7.574s-15.209-3.11-21.364-7.132c-1.268-.914-2.535-1.646-3.983-2.56-5.794-3.657-13.036-6.948-24.985-6.948-11.769 0-19.011 3.29-24.985 6.948-1.449.914-2.716 1.646-3.983 2.56-5.975 4.023-10.863 7.132-21.183 7.132-10.501 0-15.208-3.11-21.183-7.132-1.267-.914-2.535-1.646-3.983-2.56-5.794-3.657-13.036-6.948-24.985-6.948-11.768 0-19.01 3.29-24.985 6.948-1.448.914-2.716 1.646-3.983 2.56-5.975 4.023-10.863 7.132-21.183 7.132-10.501 0-15.208-3.11-21.183-7.132-1.267-.914-2.534-1.646-3.983-2.56-5.793-3.657-13.035-6.948-24.985-6.948-11.768 0-19.01 3.29-24.985 6.948-1.448.914-2.715 1.646-3.983 2.56-5.974 4.023-10.863 7.132-21.183 7.132-10.5 0-15.208-3.11-21.182-7.132-1.268-.914-2.535-1.646-3.984-2.56-5.793-3.657-13.035-6.948-24.985-6.948-11.768 0-19.01 3.29-24.984 6.948-1.449.914-2.716 1.646-3.983 2.56-5.975 4.023-10.864 7.132-21.183 7.132-10.501 0-15.209-3.11-21.183-7.132-1.268-.914-2.535-1.646-3.983-2.56-5.794-3.657-13.036-6.948-24.985-6.948-11.768 0-19.011 3.29-24.985 6.948-1.449.914-2.716 1.646-3.983 2.56-5.975 4.023-10.863 7.132-21.183 7.132-10.501 0-15.208-3.11-21.183-7.132-1.267-.914-2.535-1.646-3.983-2.56-5.794-3.657-13.036-6.948-24.985-6.948V59.23c10.501 0 15.208 3.108 21.183 7.131 6.699 4.389 14.303 9.509 28.787 9.509 14.484 0 22.088-4.938 28.787-9.509 5.974-4.023 10.863-7.131 21.183-7.131 10.501 0 15.208 3.108 21.183 7.131 6.698 4.389 14.302 9.509 28.786 9.509 14.484 0 22.089-4.938 28.787-9.509 5.975-4.023 10.863-7.131 21.183-7.131 10.501 0 15.208 3.108 21.183 7.131 6.699 4.389 14.303 9.509 28.787 9.509 14.484 0 22.088-4.938 28.787-9.509 5.975-4.023 10.863-7.131 21.183-7.131 10.5 0 15.208 3.108 21.183 7.131 6.699 4.389 14.303 9.509 28.787 9.509 14.484 0 22.088-4.938 28.787-9.509 5.974-4.023 10.863-7.131 21.183-7.131 10.5 0 15.208 3.108 21.182 7.131 6.699 4.389 14.303 9.509 28.787 9.509 14.484 0 22.088-4.938 28.787-9.509 5.975-4.023 10.863-7.131 21.183-7.131 10.501 0 15.208 3.108 21.364 7.131 6.699 4.389 14.303 9.509 28.787 9.509 14.484 0 22.088-4.938 28.787-9.509 5.975-4.023 10.863-7.131 21.364-7.131V45.333c-5 0-10 0-15 2.267s-11.233 6.069-12.5 6.8z"/></g><defs><clipPath id="clip0"><path fill="#fff" d="M0 0h370v80H0z"/></clipPath></defs></svg>
